svg/editor/signature_fill.svg

<?xml version="1.0" encoding="UTF-8"?>
<svg width="24px" height="24px" viewBox="0 0 24 24" version="1.1" xmlns="http://www.w3.org/2000/svg" xmlns:xlink="http://www.w3.org/1999/xlink">
    <title>signature_fill</title>
    <g id="Icon" stroke="none" stroke-width="1" fill="none" fill-rule="evenodd">
        <g id="Editor" transform="translate(-720.000000, -240.000000)">
            <g id="signature_fill" transform="translate(720.000000, 240.000000)">
                <path d="M24,0 L24,24 L0,24 L0,0 L24,0 Z M12.5935,23.2578 L12.5819,23.2595 L12.5109,23.295 L12.4919,23.2987 L12.4767,23.295 L12.4057,23.2595 C12.3958,23.2564 12.387,23.259 12.3821,23.2649 L12.378,23.2758 L12.3609,23.7031 L12.3659,23.7235 L12.3769,23.7357 L12.4805,23.8097 L12.4953,23.8136 L12.5071,23.8097 L12.6107,23.7357 L12.6233,23.7197 L12.6267,23.7031 L12.6096,23.2758 C12.6076,23.2657 12.601,23.2593 12.5935,23.2578 Z M12.8584,23.1453 L12.8445,23.1473 L12.6598,23.2397 L12.6499,23.2499 L12.6472,23.2611 L12.6651,23.6906 L12.6699,23.7034 L12.6784,23.7105 L12.8793,23.8032 C12.8914,23.8069 12.9022,23.803 12.9078,23.7952 L12.9118,23.7812 L12.8777,23.1665 C12.8753,23.1546 12.8674,23.147 12.8584,23.1453 Z M12.143,23.1473 C12.1332,23.1424 12.1222,23.1453 12.1156,23.1526 L12.1099,23.1665 L12.0758,23.7812 C12.0751,23.7927 12.0828,23.8019 12.0926,23.8046 L12.1083,23.8032 L12.3092,23.7105 L12.3186,23.7024 L12.3225,23.6906 L12.3404,23.2611 L12.3372,23.2485 L12.3278,23.2397 L12.143,23.1473 Z" id="形状" fill-rule="nonzero"></path>
                <path d="M15.9707,5.37979 C15.4633,5.54027 14.7802,5.84088 13.9306,6.31188 C11.9608,7.40397 9.27305,9.5296 6.10992,13.009 C5.55266,13.622 4.60399,13.6672 3.991,13.1099 C3.37802,12.5527 3.33284,11.604 3.8901,10.991 C7.18811,7.36322 10.1265,4.99069 12.476,3.68813 C13.6522,3.03601 14.7675,2.54685 15.721,2.34504 C16.52,2.17593 18.0085,2.06098 18.7925,3.34197 C19.1417,3.91238 19.1829,4.54121 19.1285,5.05902 C19.0733,5.58473 18.9061,6.13733 18.676,6.69615 C18.2151,7.8155 17.3993,9.20209 16.2255,10.865 C15.1345,12.4105 14.4598,13.536 14.0755,14.3295 C15.0865,13.864 16.007,13.0829 17.1302,12.9092 C17.4505,12.8597 17.913,12.8494 18.3775,13.0823 C18.8881,13.3384 19.1715,13.7707 19.3009,14.1672 C19.6048,15.0979 19.2188,16.1134 18.9346,17.0011 C19.5075,16.9764 20.0686,17.2832 20.3417,17.8292 C20.7121,18.5702 20.4118,19.4712 19.6708,19.8417 C18.682,20.3361 17.4008,20.7868 16.4073,20.0575 C15.9931,19.7535 15.7802,19.3453 15.6808,18.9913 C15.4773,18.2662 15.6534,17.502 15.8575,16.7969 C15.0056,17.2361 14.0601,17.6559 13.0873,17.6956 C12.6549,17.7133 12.0134,17.6523 11.4621,17.2049 C10.8585,16.7151 10.6742,16.0233 10.675,15.4388 C10.6758,14.8867 10.8332,14.3118 11.0537,13.7512 C11.4995,12.6179 12.3799,11.1107 13.7745,9.13498 C14.6005,7.9649 15.4626,6.73044 15.9707,5.37979 Z" id="路径" fill="#09244B"></path>
            </g>
        </g>
    </g>
</svg>

<svg xmlns="http://www.w3.org/2000/svg" width="24" height="24"><g fill="none" fill-rule="evenodd"><path d="M24 0v24H0V0h24ZM12.594 23.258l-.012.002-.071.035-.02.004-.014-.004-.071-.036c-.01-.003-.019 0-.024.006l-.004.01-.017.428.005.02.01.013.104.074.015.004.012-.004.104-.074.012-.016.004-.017-.017-.427c-.002-.01-.009-.017-.016-.018Zm.264-.113-.014.002-.184.093-.01.01-.003.011.018.43.005.012.008.008.201.092c.012.004.023 0 .029-.008l.004-.014-.034-.614c-.003-.012-.01-.02-.02-.022Zm-.715.002a.023.023 0 0 0-.027.006l-.006.014-.034.614c0 .012.007.02.017.024l.015-.002.201-.093.01-.008.003-.011.018-.43-.003-.012-.01-.01-.184-.092Z"/><path fill="#09244B" d="M15.97 5.38c-.507.16-1.19.46-2.04.932-1.97 1.092-4.657 3.218-7.82 6.697a1.5 1.5 0 1 1-2.22-2.018c3.298-3.628 6.236-6 8.586-7.303 1.176-.652 2.291-1.141 3.245-1.343.799-.17 2.288-.284 3.072.997.349.57.39 1.2.335 1.717-.055.526-.222 1.078-.452 1.637-.46 1.12-1.277 2.506-2.45 4.169-1.091 1.546-1.766 2.671-2.15 3.464 1.01-.465 1.931-1.246 3.054-1.42.32-.05.783-.06 1.248.173.51.256.794.689.923 1.085.304.93-.082 1.946-.366 2.834a1.5 1.5 0 0 1 .736 2.84c-.989.495-2.27.946-3.264.216a1.967 1.967 0 0 1-.726-1.066c-.204-.725-.028-1.489.177-2.194-.852.44-1.798.859-2.77.899-.433.017-1.075-.044-1.626-.491-.604-.49-.788-1.182-.787-1.766 0-.552.158-1.127.379-1.688.445-1.133 1.326-2.64 2.72-4.616.827-1.17 1.689-2.405 2.197-3.755Z"/></g></svg>
